img/glass_circle.svg

<svg version="1.1" xmlns="http://www.w3.org/2000/svg" xmlns:xlink="http://www.w3.org/1999/xlink" width="101" height="100"><defs/><g><rect fill="black" stroke="none" x="0" y="0" width="101" height="100"/><g/><path fill="none" stroke="rgb(0,255,0)" paint-order="fill stroke markers" d=" M -32.21539261912999 42.56774654714511 L -20.918211159890014 87.95314655673516" stroke-miterlimit="10" stroke-width="4" stroke-dasharray=""/><path fill="none" stroke="rgb(128,128,128)" paint-order="fill stroke markers" d=" M -34.15617132893135 43.05083867043196 L -22.858989869691367 88.436238680022" stroke-opacity="255" stroke-miterlimit="10" stroke-width="2" stroke-dasharray=""/><path fill="white" stroke="none" paint-order="stroke fill markers" d=" M 72.81480150995075 51.602919404815445 A 31.383757667900326 31.383757667900326 0 1 1 72.81478581807323 51.57153565237815" fill-opacity="0.2"/><rect fill="red" stroke="none" x="39.43104384205043" y="49.602919404815445" width="3" height="3"/><rect fill="indigo" stroke="none" x="61.39276459881299" y="72.02217601067723" width="3" height="3"/><path fill="none" stroke="rgb(255,255,128)" paint-order="fill stroke markers" d=" M -32.94844102071424 47.90278544493535 L 14.090491022939904 36.19401234094747" stroke-miterlimit="10" stroke-dasharray=""/><path fill="none" stroke="rgb(255,255,128)" paint-order="fill stroke markers" d=" M -30.53298040428003 57.60667899394211 L 10.325086554634865 47.43642608417144" stroke-miterlimit="10" stroke-dasharray=""/><path fill="none" stroke="rgb(255,255,128)" paint-order="fill stroke markers" d=" M -28.117519787845815 67.31057254294889 L 10.638063556424985 57.66366279870489" stroke-miterlimit="10" stroke-dasharray=""/><path fill="none" stroke="rgb(255,255,128)" paint-order="fill stroke markers" d=" M -25.702059171411598 77.01446609195565 L 14.138890924262853 67.09739049838915" stroke-miterlimit="10" stroke-dasharray=""/><path fill="none" stroke="rgb(255,255,128)" paint-order="fill stroke markers" d=" M -23.286598554977385 86.71835964096243 L 21.245281043531758 75.63363361807662" stroke-miterlimit="10" stroke-dasharray=""/><path fill="none" stroke="rgb(255,255,128)" paint-order="fill stroke markers" d=" M 14.090491022939904 36.19401234094747 L -662.2288945944969 -2147.0621649517852" stroke-miterlimit="10" stroke-opacity="0.048526061476364436" stroke-dasharray=""/><path fill="none" stroke="rgb(255,255,128)" paint-order="fill stroke markers" d=" M 10.325086554634865 47.43642608417144 L -1990.6587718090013 -1072.5251863792448" stroke-miterlimit="10" stroke-opacity="0.040368570147863235" stroke-dasharray=""/><path fill="none" stroke="rgb(255,255,128)" paint-order="fill stroke markers" d=" M 10.638063556424985 57.66366279870489 L -2268.9091160817225 389.8765944862032" stroke-miterlimit="10" stroke-opacity="0.04000009898495313" stroke-dasharray=""/><path fill="none" stroke="rgb(255,255,128)" paint-order="fill stroke markers" d=" M 14.138890924262853 67.09739049838915 L -1618.430554868571 1710.6234424175216" stroke-miterlimit="10" stroke-opacity="0.040095075563091026" stroke-dasharray=""/><path fill="none" stroke="rgb(255,255,128)" paint-order="fill stroke markers" d=" M 21.245281043531758 75.63363361807662 L -142.99313270025942 2402.0483823015443" stroke-miterlimit="10" stroke-opacity="0.04348047427632813" stroke-dasharray=""/><path fill="none" stroke="rgb(255,255,128)" paint-order="fill stroke markers" d=" M 14.090491022939904 36.19401234094747 L 69.85118228418779 38.28991913112657" stroke-miterlimit="10" stroke-opacity="0.9514739385236355" stroke-dasharray=""/><path fill="none" stroke="rgb(255,255,128)" paint-order="fill stroke markers" d=" M 10.325086554634865 47.43642608417144 L 70.77082309141117 40.46211158148984" stroke-miterlimit="10" stroke-opacity="0.9596314298521367" stroke-dasharray=""/><path fill="none" stroke="rgb(255,255,128)" paint-order="fill stroke markers" d=" M 10.638063556424985 57.66366279870489 L 71.75608508795295 43.520090766782616" stroke-miterlimit="10" stroke-opacity="0.9599999010150468" stroke-dasharray=""/><path fill="none" stroke="rgb(255,255,128)" paint-order="fill stroke markers" d=" M 14.138890924262853 67.09739049838915 L 72.43523467587984 46.73666868203294" stroke-miterlimit="10" stroke-opacity="0.9599049244369089" stroke-dasharray=""/><path fill="none" stroke="rgb(255,255,128)" paint-order="fill stroke markers" d=" M 21.245281043531758 75.63363361807662 L 72.74437966017389 49.50167089525756" stroke-miterlimit="10" stroke-opacity="0.9565195257236718" stroke-dasharray=""/><path fill="none" stroke="rgb(255,255,128)" paint-order="fill stroke markers" d=" M 69.85118228418779 38.28991913112657 L 35.76856187323007 82.47161784369163" stroke-miterlimit="10" stroke-opacity="0.044712465034061094" stroke-dasharray=""/><path fill="none" stroke="rgb(255,255,128)" paint-order="fill stroke markers" d=" M 70.77082309141117 40.46211158148984 L 20.930183877246073 75.36538952180823" stroke-miterlimit="10" stroke-opacity="0.03867467164885273" stroke-dasharray=""/><path fill="none" stroke="rgb(255,255,128)" paint-order="fill stroke markers" d=" M 71.75608508795295 43.520090766782616 L 11.706573115064497 61.67248172688532" stroke-miterlimit="10" stroke-opacity="0.03840007378877741" stroke-dasharray=""/><path fill="none" stroke="rgb(255,255,128)" paint-order="fill stroke markers" d=" M 72.43523467587984 46.73666868203294 L 10.704314215194383 45.214779472442345" stroke-miterlimit="10" stroke-opacity="0.0384708691452066" stroke-dasharray=""/><path fill="none" stroke="rgb(255,255,128)" paint-order="fill stroke markers" d=" M 72.74437966017389 49.50167089525756 L 18.21560239224237 30.484597415414232" stroke-miterlimit="10" stroke-opacity="0.04098733317852273" stroke-dasharray=""/><path fill="none" stroke="rgb(255,255,128)" paint-order="fill stroke markers" d=" M 69.85118228418779 38.28991913112657 L 2295.016856784738 773.4605471312694" stroke-miterlimit="10" stroke-opacity="0.9067614734895744" stroke-dasharray=""/><path fill="none" stroke="rgb(255,255,128)" paint-order="fill stroke markers" d=" M 70.77082309141117 40.46211158148984 L 2417.0928017121064 73.81001209193658" stroke-miterlimit="10" stroke-opacity="0.920956758203284" stroke-dasharray=""/><path fill="none" stroke="rgb(255,255,128)" paint-order="fill stroke markers" d=" M 71.75608508795295 43.520090766782616 L 2370.2938287596016 -448.47066739283144" stroke-miterlimit="10" stroke-opacity="0.9215998272262694" stroke-dasharray=""/><path fill="none" stroke="rgb(255,255,128)" paint-order="fill stroke markers" d=" M 72.43523467587984 46.73666868203294 L 2214.477314672242 -930.666104299677" stroke-miterlimit="10" stroke-opacity="0.9214340552917023" stroke-dasharray=""/><path fill="none" stroke="rgb(255,255,128)" paint-order="fill stroke markers" d=" M 72.74437966017389 49.50167089525756 L 1883.2113264598204 -1460.5829242173002" stroke-miterlimit="10" stroke-opacity="0.9155321925451492" stroke-dasharray=""/><path fill="none" stroke="rgb(255,255,128)" paint-order="fill stroke markers" d=" M 35.76856187323007 82.47161784369163 L -1862.924641947392 1473.2404542191725" stroke-miterlimit="10" stroke-opacity="0.04122550877164404" stroke-dasharray=""/><path fill="none" stroke="rgb(255,255,128)" paint-order="fill stroke markers" d=" M 20.930183877246073 75.36538952180823 L -2045.221374698108 1155.863873549861" stroke-miterlimit="10" stroke-opacity="0.037054342954879776" stroke-dasharray=""/><path fill="none" stroke="rgb(255,255,128)" paint-order="fill stroke markers" d=" M 11.706573115064497 61.67248172688532 L -2208.9853899502255 693.0569209862248" stroke-miterlimit="10" stroke-opacity="0.03686405114102015" stroke-dasharray=""/><path fill="none" stroke="rgb(255,255,128)" paint-order="fill stroke markers" d=" M 10.704314215194383 45.214779472442345 L -2275.336903194709 199.55111931030393" stroke-miterlimit="10" stroke-opacity="0.03691311586791601" stroke-dasharray=""/><path fill="none" stroke="rgb(255,255,128)" paint-order="fill stroke markers" d=" M 18.21560239224237 30.484597415414232 L -2252.0182717654648 -220.14244012228593" stroke-miterlimit="10" stroke-opacity="0.03865499678863987" stroke-dasharray=""/><path fill="none" stroke="rgb(0,255,0)" paint-order="fill stroke markers" d=" M -32.21539261912999 42.56774654714511 L -20.918211159890014 87.95314655673516" stroke-miterlimit="10" stroke-width="4" stroke-dasharray=""/><path fill="none" stroke="rgb(128,128,128)" paint-order="fill stroke markers" d=" M -34.15617132893135 43.05083867043196 L -22.858989869691367 88.436238680022" stroke-opacity="255" stroke-miterlimit="10" stroke-width="2" stroke-dasharray=""/><rect fill="red" stroke="none" x="39.43104384205043" y="49.602919404815445" width="3" height="3"/><rect fill="indigo" stroke="none" x="61.39276459881299" y="72.02217601067723" width="3" height="3"/></g></svg>

<svg xmlns="http://www.w3.org/2000/svg" width="101" height="100"><path d="M0 0h101v100H0z"/><path fill="none" stroke="#0F0" paint-order="fill stroke markers" d="m-32.215 42.568 11.297 45.385" stroke-miterlimit="10" stroke-width="4"/><path fill="none" stroke="gray" paint-order="fill stroke markers" d="m-34.156 43.05 11.297 45.386" stroke-opacity="255" stroke-miterlimit="10" stroke-width="2"/><path fill="#fff" paint-order="stroke fill markers" d="M72.815 51.603a31.384 31.384 0 1 1 0-.031" fill-opacity=".2"/><path fill="red" d="M39.431 49.603h3v3h-3z"/><path fill="indigo" d="M61.393 72.022h3v3h-3z"/><path fill="none" stroke="#FFFF80" paint-order="fill stroke markers" d="M-32.948 47.903 14.09 36.194M-30.533 57.607l40.858-10.17M-28.118 67.31l38.756-9.646M-25.702 77.014l39.84-9.917M-23.287 86.718l44.532-11.084" stroke-miterlimit="10"/><path fill="none" stroke="#FFFF80" paint-order="fill stroke markers" d="m14.09 36.194-676.319-2183.256" stroke-miterlimit="10" stroke-opacity=".049"/><path fill="none" stroke="#FFFF80" paint-order="fill stroke markers" d="m10.325 47.436-2000.984-1119.961M10.638 57.664l-2279.547 332.213M14.139 67.097l-1632.57 1643.526" stroke-miterlimit="10" stroke-opacity=".04"/><path fill="none" stroke="#FFFF80" paint-order="fill stroke markers" d="m21.245 75.634-164.238 2326.414" stroke-miterlimit="10" stroke-opacity=".043"/><path fill="none" stroke="#FFFF80" paint-order="fill stroke markers" d="m14.09 36.194 55.761 2.096" stroke-miterlimit="10" stroke-opacity=".951"/><path fill="none" stroke="#FFFF80" paint-order="fill stroke markers" d="m10.325 47.436 60.446-6.974M10.638 57.664 71.756 43.52M14.139 67.097l58.296-20.36" stroke-miterlimit="10" stroke-opacity=".96"/><path fill="none" stroke="#FFFF80" paint-order="fill stroke markers" d="m21.245 75.634 51.5-26.132" stroke-miterlimit="10" stroke-opacity=".957"/><path fill="none" stroke="#FFFF80" paint-order="fill stroke markers" d="M69.851 38.29 35.77 82.472" stroke-miterlimit="10" stroke-opacity=".045"/><path fill="none" stroke="#FFFF80" paint-order="fill stroke markers" d="M70.77 40.462 20.93 75.365" stroke-miterlimit="10" stroke-opacity=".039"/><path fill="none" stroke="#FFFF80" paint-order="fill stroke markers" d="m71.756 43.52-60.05 18.152M72.435 46.737l-61.73-1.522" stroke-miterlimit="10" stroke-opacity=".038"/><path fill="none" stroke="#FFFF80" paint-order="fill stroke markers" d="M72.744 49.502 18.216 30.485" stroke-miterlimit="10" stroke-opacity=".041"/><path fill="none" stroke="#FFFF80" paint-order="fill stroke markers" d="m69.851 38.29 2225.166 735.17" stroke-miterlimit="10" stroke-opacity=".907"/><path fill="none" stroke="#FFFF80" paint-order="fill stroke markers" d="M70.77 40.462 2417.094 73.81" stroke-miterlimit="10" stroke-opacity=".921"/><path fill="none" stroke="#FFFF80" paint-order="fill stroke markers" d="m71.756 43.52 2298.538-491.99" stroke-miterlimit="10" stroke-opacity=".922"/><path fill="none" stroke="#FFFF80" paint-order="fill stroke markers" d="m72.435 46.737 2142.042-977.403" stroke-miterlimit="10" stroke-opacity=".921"/><path fill="none" stroke="#FFFF80" paint-order="fill stroke markers" d="m72.744 49.502 1810.467-1510.085" stroke-miterlimit="10" stroke-opacity=".916"/><path fill="none" stroke="#FFFF80" paint-order="fill stroke markers" d="M35.769 82.472-1862.925 1473.24" stroke-miterlimit="10" stroke-opacity=".041"/><path fill="none" stroke="#FFFF80" paint-order="fill stroke markers" d="M20.93 75.365-2045.22 1155.864M11.707 61.672l-2220.692 631.385M10.704 45.215l-2286.04 154.336" stroke-miterlimit="10" stroke-opacity=".037"/><path fill="none" stroke="#FFFF80" paint-order="fill stroke markers" d="m18.216 30.485-2270.234-250.627" stroke-miterlimit="10" stroke-opacity=".039"/><path fill="none" stroke="#0F0" paint-order="fill stroke markers" d="m-32.215 42.568 11.297 45.385" stroke-miterlimit="10" stroke-width="4"/><path fill="none" stroke="gray" paint-order="fill stroke markers" d="m-34.156 43.05 11.297 45.386" stroke-opacity="255" stroke-miterlimit="10" stroke-width="2"/><path fill="red" d="M39.431 49.603h3v3h-3z"/><path fill="indigo" d="M61.393 72.022h3v3h-3z"/></svg>
